X:1
T:Second Degree I - Les Premiers Pas
%%singleline true
%%SYMBOL_SCALE_FACTOR 2
%%BAR_OFFSET 0.3
%%score { 1 | 2 }
L:1/4
Q:1/4=120
M:4/4
I:linebreak $
K:C
V:1 treble stafflines=5
V:2 bass
V:1
    e c f d | e c d2 | e c f d | e d c2 | d f e g | f d e2 |
    d f e g | f e d g | e c f d | e c d2 | e c f d | e d c2 |]
V:2
    C,2 G,2 | C,2 G,2 | C,2 G,2 | C, G, C,2 | G,2 C,2 | G,2 C,2 |
    G,2 C,2 | G,4 | C,2 G,2 | C,2 G,2 | C,2 G,2 | C, G, C,2 |]
 